X: 11
T: JACK BROKE DA PRISON DOOR
S: Angela Hughson, Baldasound
R: reel
B: Haand me doon da fiddle, 1979
Z: 2012 John Chambers <jc:trillian.mit.edu>
N: Fixed missing bar line after D pickup to 2nd section.
M: C
L: 1/8
K: G
(D |\
G2)BG BdBG | v(cB)AB u(dB)Au(B | G2)BG BdBG |
ABAG E2D :|| u(D | [g2B2])gd edBu(G | g2)gd e(aa)(f |
g2)(gd) edBG | ABAG E2D :|
%%begintext align
Dis een wis made up be an auld fiddler named Jack Goudie frae
da Ness.  Some said dat he'd hed a dunt on his head when he
wis young dat gave him queer turns.  He wis a very good fiddler
an made up loks o' t\"uns.  Wan night in Lerook wi a dram in him
he got a queer turn an da poliss lockit him up ida auld prison.
He waited til dey wir sleepin an dan he brook doon da prison
door an made fir hame as fast as he could.  Da poliss wir awaur
it he wis gaen, bit tocht better to let be fir let be, so dey
didna geng efter him.  When Jack got hame he took his fiddle
an made up dis t\"un an caaed him, "Jack Broke da Prison Door".
If du listens to da first twartre notes du can hear hit sayin dat.
%%endtext

%%sep 2 1 500
%%sep 1 1 500

